;FLAVOR:Marlin
;TIME:25189
;Filament used: 21.5652m
;Layer height: 0.2
;MINX:65.245
;MINY:55.449
;MINZ:0.36
;MAXX:154.8
;MAXY:164.55
;MAXZ:60.51
;Generated with Cura_SteamEngine 4.7.1
M140 S65
M105
M190 S65
M104 S210
M105
M109 S210
M82 ;absolute extrusion mode
M201 X500.00 Y500.00 Z100.00 E5000.00 ;Setup machine max acceleration
M203 X500.00 Y500.00 Z10.00 E50.00 ;Setup machine max feedrate
M204 P500.00 R1000.00 T500.00 ;Setup Print/Retract/Travel acceleration
M205 X8.00 Y8.00 Z0.40 E5.00 ;Setup Jerk
M220 S100 ;Reset Feedrate
M221 S100 ;Reset Flowrate

G28 ;Home
M92 E325 ;New estep value default is 93
G29 ;abl

G92 E0 ;Reset Extruder
G1 Z2.0 F3000 ;Move Z Axis up
G1 X10.1 Y20 Z0.28 F5000.0 ;Move to start position
G1 X10.1 Y200.0 Z0.28 F1500.0 E15 ;Draw the first line
G1 X10.4 Y200.0 Z0.28 F5000.0 ;Move to side a little
G1 X10.4 Y20 Z0.28 F1500.0 E30 ;Draw the second line
G92 E0 ;Reset Extruder
G1 Z2.0 F3000 ;Move Z Axis up

G92 E0
G92 E0
G1 F1800 E-1
;LAYER_COUNT:296
;LAYER:-6
M107
G0 F9000 X72.077 Y61.567 Z0.36
;TYPE:SUPPORT-INTERFACE
G1 F1800 E0
G1 F1125 X72.173 Y61.459 E0.0173
G1 X72.656 Y60.948 E0.10149
G1 X72.655 Y60.947 E0.10166
G1 X73.695 Y59.908 E0.27768
G1 X74.391 Y59.262 E0.39139
G1 X74.53 Y59.143 E0.4133
G1 X75.221 Y58.589 E0.51934
G1 X75.36 Y58.485 E0.54013
G1 X76.075 Y57.993 E0.64405
G1 X76.259 Y57.876 E0.67016
G1 X77.015 Y57.433 E0.77508
G1 X77.157 Y57.356 E0.79442
G1 X77.989 Y56.947 E0.90542
G1 X78.102 Y56.897 E0.92022
G1 X78.952 Y56.554 E1.02997
G1 X79.125 Y56.492 E1.05197
G1 X79.963 Y56.223 E1.15736
G1 X80.127 Y56.177 E1.17775
G1 X80.999 Y55.965 E1.2852
G1 X81.161 Y55.932 E1.305
G1 X82.054 Y55.784 E1.41338
G1 X82.231 Y55.761 E1.43475
G1 X83.125 Y55.678 E1.54226
G1 X83.267 Y55.671 E1.55928
G1 X84.008 Y55.65 E1.64804
G1 X139.003 Y55.651 E8.23295
G1 X140.004 Y55.687 E8.35288
G1 X140.127 Y55.696 E8.36765
G1 X141.044 Y55.798 E8.47812
G1 X141.219 Y55.823 E8.49929
G1 X142.108 Y55.987 E8.60753
G1 X142.231 Y56.015 E8.62264
G1 X143.125 Y56.249 E8.73329
G1 X143.288 Y56.298 E8.75367
G1 X144.13 Y56.584 E8.86014
G1 X144.296 Y56.648 E8.88145
G1 X145.099 Y56.989 E8.9859
G1 X145.288 Y57.077 E9.01087
G1 X146.076 Y57.483 E9.11701
G1 X146.198 Y57.551 E9.13373
G1 X146.978 Y58.026 E9.24308
G1 X147.129 Y58.126 E9.26477
G1 X147.842 Y58.636 E9.36973
G1 X147.991 Y58.75 E9.39219
G1 X148.683 Y59.327 E9.50007
G1 X148.791 Y59.423 E9.51738
G1 X149.302 Y59.906 E9.60157
G1 X149.303 Y59.905 E9.60174
G1 X150.342 Y60.945 E9.77776
G1 X150.988 Y61.641 E9.89146
G1 X151.107 Y61.78 E9.91337
G1 X151.661 Y62.471 E10.01942
G1 X151.765 Y62.61 E10.0402
G1 X152.257 Y63.325 E10.14412
G1 X152.374 Y63.509 E10.17023
G1 X152.814 Y64.258 E10.27425
G1 X152.887 Y64.392 E10.29252
G1 X153.292 Y65.215 E10.40235
G1 X153.353 Y65.352 E10.4203
G1 X153.695 Y66.197 E10.52945
G1 X153.754 Y66.363 E10.55055
G1 X154.026 Y67.208 E10.65684
G1 X154.072 Y67.371 E10.67712
G1 X154.284 Y68.245 E10.7848
G1 X154.317 Y68.403 E10.80413
G1 X154.465 Y69.295 E10.91239
G1 X154.489 Y69.481 E10.93485
G1 X154.571 Y70.365 E11.04115
G1 X154.579 Y70.517 E11.05937
G1 X154.6 Y71.25 E11.14718
G1 X154.6 Y148.736 E20.42508
G1 X154.564 Y149.742 E20.54561
G1 X154.554 Y149.877 E20.56182
G1 X154.452 Y150.794 E20.67229
G1 X154.427 Y150.969 E20.69346
G1 X154.265 Y151.847 E20.80036
G1 X154.235 Y151.981 E20.81681
G1 X154.004 Y152.866 E20.92632
G1 X153.952 Y153.038 E20.94784
G1 X153.666 Y153.88 E21.05431
G1 X153.602 Y154.046 E21.07562
G1 X153.261 Y154.849 E21.18007
G1 X153.18 Y155.024 E21.20316
G1 X152.765 Y155.832 E21.31193
G1 X152.698 Y155.949 E21.32807
G1 X152.224 Y156.728 E21.43725
G1 X152.124 Y156.879 E21.45894
G1 X151.613 Y157.593 E21.56407
G1 X151.5 Y157.741 E21.58637
G1 X150.923 Y158.433 E21.69425
G1 X150.827 Y158.541 E21.71155
G1 X150.344 Y159.052 E21.79574
G1 X150.345 Y159.053 E21.79591
G1 X149.305 Y160.092 E21.97193
G1 X148.609 Y160.738 E22.08563
G1 X148.47 Y160.857 E22.10754
G1 X147.779 Y161.411 E22.21359
G1 X147.64 Y161.515 E22.23438
G1 X146.925 Y162.007 E22.3383
G1 X146.741 Y162.124 E22.36441
G1 X145.985 Y162.567 E22.46932
G1 X145.843 Y162.644 E22.48866
G1 X145.015 Y163.051 E22.59914
G1 X144.898 Y163.103 E22.61447
G1 X144.043 Y163.448 E22.72486
G1 X143.88 Y163.506 E22.74558
G1 X143.037 Y163.777 E22.8516
G1 X142.873 Y163.823 E22.872
G1 X142.001 Y164.035 E22.97945
G1 X141.839 Y164.068 E22.99924
G1 X140.946 Y164.216 E23.10763
G1 X140.769 Y164.239 E23.129
G1 X139.875 Y164.322 E23.2365
G1 X139.733 Y164.329 E23.25353
G1 X138.992 Y164.35 E23.34229
G1 X83.032 Y164.35 E30.04274
G1 X81.996 Y164.313 E30.16687
G1 X81.873 Y164.304 E30.18163
G1 X80.956 Y164.202 E30.29211
G1 X80.781 Y164.177 E30.31328
G1 X79.892 Y164.013 E30.42152
G1 X79.769 Y163.985 E30.43662
G1 X78.875 Y163.751 E30.54727
G1 X78.712 Y163.702 E30.56765
G1 X77.87 Y163.416 E30.67413
G1 X77.704 Y163.352 E30.69543
G1 X76.901 Y163.011 E30.79989
G1 X76.712 Y162.923 E30.82485
G1 X75.918 Y162.515 E30.93174
G1 X75.801 Y162.448 E30.94788
G1 X75.022 Y161.974 E31.05707
G1 X74.871 Y161.874 E31.07875
G1 X74.157 Y161.363 E31.18389
G1 X74.009 Y161.25 E31.20618
G1 X73.318 Y160.674 E31.31389
G1 X73.205 Y160.573 E31.33204
G1 X72.556 Y159.948 E31.43993
G1 X72.436 Y159.823 E31.46067
G1 X71.833 Y159.152 E31.56869
G1 X71.736 Y159.034 E31.58698
G1 X71.178 Y158.312 E31.69624
G1 X71.074 Y158.165 E31.7178
G1 X70.581 Y157.422 E31.82457
G1 X70.508 Y157.301 E31.84149
G1 X70.056 Y156.496 E31.95203
G1 X69.984 Y156.357 E31.97078
G1 X69.601 Y155.541 E32.07871
G1 X69.536 Y155.387 E32.09872
G1 X69.211 Y154.538 E32.20757
G1 X69.163 Y154.396 E32.22552
G1 X69.016 Y153.909 E32.28643
G1 X68.783 Y153.281 E32.36663
G1 X68.469 Y152.681 E32.44772
G1 X68.243 Y152.337 E32.497
G1 X68.123 Y152.171 E32.52153
G1 X67.627 Y151.422 E32.62909
G1 X67.554 Y151.301 E32.64601
G1 X67.102 Y150.496 E32.75656
G1 X67.03 Y150.357 E32.7753
G1 X66.647 Y149.541 E32.88323
G1 X66.582 Y149.387 E32.90325
G1 X66.258 Y148.54 E33.01183
G1 X66.201 Y148.375 E33.03273
G1 X65.951 Y147.54 E33.1371
G1 X65.904 Y147.367 E33.15856
G1 X65.703 Y146.466 E33.2691
G1 X65.681 Y146.342 E33.28418
G1 X65.546 Y145.428 E33.3948
G1 X65.529 Y145.268 E33.41407
G1 X65.463 Y144.376 E33.52116
G1 X65.454 Y144.195 E33.54286
G1 X65.446 Y143.694 E33.60286
G1 X65.446 Y76.264 E41.67669
G1 X65.482 Y75.258 E41.79722
G1 X65.492 Y75.123 E41.81343
G1 X65.594 Y74.206 E41.92391
G1 X65.619 Y74.031 E41.94507
G1 X65.781 Y73.153 E42.05198
G1 X65.811 Y73.019 E42.06842
G1 X66.042 Y72.134 E42.17794
G1 X66.094 Y71.962 E42.19945
G1 X66.38 Y71.12 E42.30593
G1 X66.444 Y70.954 E42.32723
G1 X66.785 Y70.151 E42.43169
G1 X66.866 Y69.976 E42.45478
G1 X67.281 Y69.168 E42.56354
G1 X67.348 Y69.051 E42.57968
G1 X67.822 Y68.272 E42.68887
G1 X67.922 Y68.121 E42.71055
G1 X68.42 Y67.425 E42.81302
G1 X68.56 Y67.243 E42.84052
G1 X68.656 Y67.128 E42.85845
G1 X69.052 Y66.583 E42.93912
G1 X69.458 Y65.813 E43.04335
G1 X69.739 Y65.151 E43.12946
G1 X69.82 Y64.976 E43.15255
G1 X70.235 Y64.168 E43.26131
G1 X70.302 Y64.051 E43.27745
G1 X70.776 Y63.272 E43.38664
G1 X70.876 Y63.121 E43.40832
G1 X71.392 Y62.4 E43.51448
G1 X71.5 Y62.259 E43.53575
G1 X72.077 Y61.567 E43.64363
G0 F9000 X72 Y61.659
G1 F1125 X72 Y159.337 E55.33925
G1 F1800 E54.33925
G1 F300 Z0.56
G0 F9000 X73.6 Y160.909 Z0.56
G1 F300 Z0.36
G1 F1800 E55.33925
G1 F1125 X73.6 Y60.002 E67.4215
G1 F1800 E66.4215
G1 F300 Z0.56
G0 F9000 X75.2 Y58.605 Z0.56
G1 F300 Z0.36
G1 F1800 E67.4215
G1 F1125 X75.2 Y162.082 E79.81147
G1 F1800 E78.81147
G1 F300 Z0.56
G0 F9000 X76.8 Y162.963 Z0.56
G1 F300 Z0.36
G1 F1800 E79.81147
G1 F1125 X76.8 Y57.558 E92.4323
G1 F1800 E91.4323
G1 F300 Z0.56
G0 F9000 X78.4 Y56.776 Z0.56
G1 F300 Z0.36
G1 F1800 E92.4323
G1 F1125 X78.4 Y163.596 E105.22255
G1 F1800 E104.22255
G1 F300 Z0.56
G0 F9000 X80 Y164.032 Z0.56
G1 F300 Z0.36
G1 F1800 E105.22255
G1 F1125 X80 Y56.212 E118.13254
G1 F1800 E117.13254
G1 F300 Z0.56
G0 F9000 X81.6 Y55.859 Z0.56
G1 F300 Z0.36
G1 F1800 E118.13254
G1 F1125 X81.6 Y164.273 E131.11365
G1 F1800 E130.11365
G1 F300 Z0.56
G0 F9000 X83.2 Y164.35 Z0.56
G1 F300 Z0.36
G1 F1800 E131.11365
G1 F1125 X83.2 Y55.674 E144.12613
G1 F1800 E143.12613
G1 F300 Z0.56
G0 F9000 X84.8 Y55.651 Z0.56
G1 F300 Z0.36
G1 F1800 E144.12613
G1 F1125 X84.8 Y164.35 E157.14137
G1 F1800 E156.14137
G1 F300 Z0.56
G0 F9000 X86.4 Y164.35 Z0.56
G1 F300 Z0.36
G1 F1800 E157.14137
G1 F1125 X86.4 Y55.651 E170.1566
G1 F1800 E169.1566
G1 F300 Z0.56
G0 F9000 X88 Y55.651 Z0.56
G1 F300 Z0.36
G1 F1800 E170.1566
G1 F1125 X88 Y164.35 E183.17184
G1 F1800 E182.17184
G1 F300 Z0.56
G0 F9000 X89.6 Y164.35 Z0.56
G1 F300 Z0.36
G1 F1800 E183.17184
G1 F1125 X89.6 Y55.651 E196.18708
G1 F1800 E195.18708
G1 F300 Z0.56
G0 F9000 X91.2 Y55.651 Z0.56
G1 F300 Z0.36
G1 F1800 E196.18708
G1 F1125 X91.2 Y164.35 E209.20231
G1 F1800 E208.20231
G1 F300 Z0.56
G0 F9000 X92.8 Y164.35 Z0.56
G1 F300 Z0.36
G1 F1800 E209.20231
G1 F1125 X92.8 Y55.651 E222.21755
G1 F1800 E221.21755
G1 F300 Z0.56
G0 F9000 X94.4 Y55.651 Z0.56
G1 F300 Z0.36
G1 F1800 E222.21755
G1 F1125 X94.4 Y164.35 E235.23279
G1 F1800 E234.23279
G1 F300 Z0.56
G0 F9000 X96 Y164.35 Z0.56
G1 F300 Z0.36
G1 F1800 E235.23279
G1 F1125 X96 Y55.651 E248.24802
G1 F1800 E247.24802
G1 F300 Z0.56
G0 F9000 X97.6 Y55.651 Z0.56
G1 F300 Z0.36
G1 F1800 E248.24802
G1 F1125 X97.6 Y164.35 E261.26326
G1 F1800 E260.26326
G1 F300 Z0.56
G0 F9000 X99.2 Y164.35 Z0.56
G1 F300 Z0.36
G1 F1800 E261.26326
G1 F1125 X99.2 Y55.651 E274.2785
G1 F1800 E273.2785
G1 F300 Z0.56
G0 F9000 X100.8 Y55.651 Z0.56
G1 F300 Z0.36
G1 F1800 E274.2785
G1 F1125 X100.8 Y164.35 E287.29373
G1 F1800 E286.29373
G1 F300 Z0.56
G0 F9000 X102.4 Y164.35 Z0.56
G1 F300 Z0.36
G1 F1800 E287.29373
G1 F1125 X102.4 Y55.651 E300.30897
G1 F1800 E299.30897
G1 F300 Z0.56
G0 F9000 X104 Y55.651 Z0.56
G1 F300 Z0.36
G1 F1800 E300.30897
G1 F1125 X104 Y164.35 E313.3242
G1 F1800 E312.3242
G1 F300 Z0.56
G0 F9000 X105.6 Y164.35 Z0.56
G1 F300 Z0.36
G1 F1800 E313.3242
G1 F1125 X105.6 Y55.651 E326.33944
G1 F1800 E325.33944
G1 F300 Z0.56
G0 F9000 X107.2 Y55.651 Z0.56
G1 F300 Z0.36
G1 F1800 E326.33944
G1 F1125 X107.2 Y164.35 E339.35468
G1 F1800 E338.35468
G1 F300 Z0.56
G0 F9000 X108.8 Y164.35 Z0.56
G1 F300 Z0.36
G1 F1800 E339.35468
G1 F1125 X108.8 Y55.651 E352.36991
G1 F1800 E351.36991
G1 F300 Z0.56
G0 F9000 X110.4 Y55.651 Z0.56
G1 F300 Z0.36
G1 F1800 E352.36991
G1 F1125 X110.4 Y164.35 E365.38515
G1 F1800 E364.38515
G1 F300 Z0.56
G0 F9000 X112 Y164.35 Z0.56
G1 F300 Z0.36
G1 F1800 E365.38515
G1 F1125 X112 Y55.651 E378.40039
G1 F1800 E377.40039
G1 F300 Z0.56
G0 F9000 X113.6 Y55.651 Z0.56
G1 F300 Z0.36
G1 F1800 E378.40039
G1 F1125 X113.6 Y164.35 E391.41562
G1 F1800 E390.41562
G1 F300 Z0.56
G0 F9000 X115.2 Y164.35 Z0.56
G1 F300 Z0.36
G1 F1800 E391.41562
G1 F1125 X115.2 Y55.651 E404.43086
G1 F1800 E403.43086
G1 F300 Z0.56
G0 F9000 X116.8 Y55.651 Z0.56
G1 F300 Z0.36
G1 F1800 E404.43086
G1 F1125 X116.8 Y164.35 E417.44609
G1 F1800 E416.44609
G1 F300 Z0.56
G0 F9000 X118.4 Y164.35 Z0.56
G1 F300 Z0.36
G1 F1800 E417.44609
G1 F1125 X118.4 Y55.651 E430.46133
G1 F1800 E429.46133
G1 F300 Z0.56
G0 F9000 X120 Y55.651 Z0.56
G1 F300 Z0.36
G1 F1800 E430.46133
G1 F1125 X120 Y164.35 E443.47657
G1 F1800 E442.47657
G1 F300 Z0.56
G0 F9000 X121.6 Y164.35 Z0.56
G1 F300 Z0.36
G1 F1800 E443.47657
G1 F1125 X121.6 Y55.651 E456.4918
G1 F1800 E455.4918
G1 F300 Z0.56
G0 F9000 X123.2 Y55.651 Z0.56
G1 F300 Z0.36
G1 F1800 E456.4918
G1 F1125 X123.2 Y164.35 E469.50704
G1 F1800 E468.50704
G1 F300 Z0.56
G0 F9000 X124.8 Y164.35 Z0.56
G1 F300 Z0.36
G1 F1800 E469.50704
G1 F1125 X124.8 Y55.651 E482.52228
G1 F1800 E481.52228
G1 F300 Z0.56
G0 F9000 X126.4 Y55.651 Z0.56
G1 F300 Z0.36
G1 F1800 E482.52228
G1 F1125 X126.4 Y164.35 E495.53751
G1 F1800 E494.53751
G1 F300 Z0.56
G0 F9000 X128 Y164.35 Z0.56
G1 F300 Z0.36
G1 F1800 E495.53751
G1 F1125 X128 Y55.651 E508.55275
G1 F1800 E507.55275
G1 F300 Z0.56
G0 F9000 X129.6 Y55.651 Z0.56
G1 F300 Z0.36
G1 F1800 E508.55275
G1 F1125 X129.6 Y164.35 E521.56799
G1 F1800 E520.56799
G1 F300 Z0.56
G0 F9000 X131.2 Y164.35 Z0.56
G1 F300 Z0.36
G1 F1800 E521.56799
G1 F1125 X131.2 Y55.651 E534.58322
G1 F1800 E533.58322
G1 F300 Z0.56
G0 F9000 X132.8 Y55.651 Z0.56
G1 F300 Z0.36
G1 F1800 E534.58322
G1 F1125 X132.8 Y164.35 E547.59846
G1 F1800 E546.59846
G1 F300 Z0.56
G0 F9000 X134.4 Y164.35 Z0.56
G1 F300 Z0.36
G1 F1800 E547.59846
G1 F1125 X134.4 Y55.651 E560.61369
G1 F1800 E559.61369
G1 F300 Z0.56
G0 F9000 X136 Y55.651 Z0.56
G1 F300 Z0.36
G1 F1800 E560.61369
G1 F1125 X136 Y164.35 E573.62893
G1 F1800 E572.62893
G1 F300 Z0.56
G0 F9000 X137.6 Y164.35 Z0.56
G1 F300 Z0.36
G1 F1800 E573.62893
G1 F1125 X137.6 Y55.651 E586.64417
G1 F1800 E585.64417
G1 F300 Z0.56
G0 F9000 X139.2 Y55.659 Z0.56
G1 F300 Z0.36
G1 F1800 E586.64417
G1 F1125 X139.2 Y164.345 E599.65785
G1 F1800 E598.65785
G1 F300 Z0.56
G0 F9000 X140.8 Y164.235 Z0.56
G1 F300 Z0.36
G1 F1800 E599.65785
G1 F1125 X140.8 Y55.771 E612.64494
G1 F1800 E611.64494
G1 F300 Z0.56
G0 F9000 X142.4 Y56.06 Z0.56
G1 F300 Z0.36
G1 F1800 E612.64494
G1 F1125 X142.4 Y163.938 E625.56188
G1 F1800 E624.56188
G1 F300 Z0.56
G0 F9000 X144 Y163.464 Z0.56
G1 F300 Z0.36
G1 F1800 E625.56188
G1 F1125 X144 Y56.54 E638.36458
G1 F1800 E637.36458
G1 F300 Z0.56
G0 F9000 X145.6 Y57.238 Z0.56
G1 F300 Z0.36
G1 F1800 E638.36458
G1 F1125 X145.6 Y162.764 E650.99989
G1 F1800 E649.99989
G1 F300 Z0.56
G0 F9000 X147.2 Y161.818 Z0.56
G1 F300 Z0.36
G1 F1800 E650.99989
G1 F1125 X147.2 Y58.177 E663.4095
G1 F1800 E662.4095
G1 F300 Z0.56
G0 F9000 X148.8 Y59.432 Z0.56
G1 F300 Z0.36
G1 F1800 E663.4095
G1 F1125 X148.8 Y160.561 E675.51833
G1 F1800 E674.51833
G1 F300 Z0.56
G0 F9000 X150.4 Y158.993 Z0.56
G1 F300 Z0.36
G1 F1800 E675.51833
G1 F1125 X150.4 Y61.008 E687.25071
G1 F1800 E686.25071
G1 F300 Z0.56
G0 F9000 X152 Y62.952 Z0.56
G1 F300 Z0.36
G1 F1800 E687.25071
G1 F1125 X152 Y157.053 E698.51804
G1 F1800 E697.51804
G1 F300 Z0.56
G0 F9000 X153.6 Y154.051 Z0.56
G1 F300 Z0.36
G1 F1800 E698.51804
G1 F1125 X153.6 Y65.963 E709.06538
G1 F1800 E708.06538
G1 F300 Z0.56
G0 F9000 X70.4 Y63.889 Z0.56
G1 F300 Z0.36
G1 F1800 E709.06538
G1 F1125 X70.4 Y157.108 E720.2271
G1 F1800 E719.2271
G1 F300 Z0.56
G0 F9000 X68.8 Y153.326 Z0.56
G1 F300 Z0.36
G1 F1800 E720.2271
G1 F1125 X68.8 Y66.929 E730.57197
G1 F1800 E729.57197
G1 F300 Z0.56
G0 F9000 X67.2 Y69.325 Z0.56
G1 F300 Z0.36
G1 F1800 E730.57197
G1 F1125 X67.2 Y150.67 E740.31194
G1 F1800 E739.31194
G1 F300 Z0.56
G0 F9000 X65.6 Y145.793 Z0.56
G1 F300 Z0.36
G1 F1800 E740.31194
G1 F1125 X65.6 Y74.164 E748.88854
G1 F1800 E747.88854
G1 F300 Z0.56
G0 F9000 X72.655 Y60.948 Z0.56
;TIME_ELAPSED:355.652445
;LAYER:-5
G0 X72.655 Y60.948 Z0.86
;TYPE:SUPPORT
G1 F300 Z0.66
G1 F1800 E748.88854
G1 F1125 X72.463 Y61.149 E748.91628
G1 X154.599 Y143.285 E760.50655
G1 X154.599 Y144.7 E760.64774
G1 X71.798 Y61.898 E772.33193
G1 X71.499 Y62.258 E772.37862
G1 X71.391 Y62.4 E772.39643
G1 X71.18 Y62.694 E772.43253
G1 X154.599 Y146.114 E784.20393
G1 X154.599 Y147.528 E784.34502
G1 X70.611 Y63.54 E796.19663
G1 X70.301 Y64.05 E796.25618
G1 X70.234 Y64.167 E796.26964
G1 X70.095 Y64.438 E796.30003
G1 X154.591 Y148.935 E808.22339
G1 X154.562 Y149.741 E808.30387
G1 X154.553 Y149.876 E808.31737
G1 X154.51 Y150.267 E808.35662
G1 X69.635 Y65.392 E820.3334
G1 X69.457 Y65.813 E820.37901
G1 X69.175 Y66.347 E820.43926
G1 X154.328 Y151.499 E832.4552
G1 X154.263 Y151.846 E832.49043
G1 X154.234 Y151.981 E832.5042
G1 X154.06 Y152.646 E832.57279
G1 X68.603 Y67.189 E844.6317
G1 X68.559 Y67.243 E844.63865
G1 X68.418 Y67.424 E844.66154
G1 X68.003 Y68.003 E844.73262
G1 X153.72 Y153.72 E856.82822
G1 X153.665 Y153.879 E856.845
G1 X153.601 Y154.044 E856.86266
G1 X153.312 Y154.726 E856.93657
G1 X67.456 Y68.87 E869.05178
G1 X67.347 Y69.05 E869.07278
G1 X67.281 Y69.167 E869.08618
G1 X66.96 Y69.789 E869.15602
G1 X152.846 Y155.675 E881.27546
G1 X152.765 Y155.831 E881.293
G1 X152.698 Y155.948 E881.30645
G1 X152.323 Y156.566 E881.37858
G1 X66.523 Y70.765 E893.48596
G1 X66.443 Y70.953 E893.50635
G1 X66.38 Y71.119 E893.52406
G1 X66.147 Y71.803 E893.59616
G1 X151.747 Y157.404 E905.67532
G1 X151.612 Y157.592 E905.69841
G1 X151.499 Y157.74 E905.71699
G1 X151.122 Y158.193 E905.7758
G1 X65.838 Y72.909 E917.81029
